X:15001
T:Schottische fr France
R:Schottische
O:France
M:4/4
K:EDor
EFGA B2e2|d2ed B2AB|e2d2 BAGA|1e2d2B4:|2G2F2E4:|*
|:e2f2 gfed|B2dc B2AB|d2c2 BAGA|1d2c2B4:|2G2F2E4:|**
